; generated by PrusaSlicer 2.0.0+win64 on 2021-01-30 at 12:50:43

; 

; external perimeters extrusion width = 0.56mm
; perimeters extrusion width = 0.56mm
; infill extrusion width = 0.56mm
; solid infill extrusion width = 0.56mm
; top infill extrusion width = 0.50mm
; first layer extrusion width = 0.52mm

M201 X5000 Y5000 Z5000 E10000 ; sets maximum accelerations, mm/sec^2
M203 X250 Y250 Z250 E120 ; sets maximum feedrates, mm/sec
M204 P1500 R1500 T1500 ; sets acceleration (P, T) and retract acceleration (R), mm/sec^2
M205 X10.00 Y10.00 Z10.00 E2.50 ; sets the jerk limits, mm/sec
M205 S0 T0 ; sets the minimum extruding and travel feed rate, mm/sec
M107
M190 S60 ; set bed temperature and wait for it to be reached
M104 S215 ; set temperature
G28 ; home all axes
G1 Z5 F5000 ; lift nozzle
M900 K30 ; Filament gcode
M109 S215 ; set temperature and wait for it to be reached
G21 ; set units to millimeters
G90 ; use absolute coordinates
M82 ; use absolute distances for extrusion
G92 E0
G1 E-3.00000 F6000.00000
G92 E0
G1 Z1.000 F30000.000
G1 X49.047 Y-38.142
G1 Z0.350
G1 E3.00000 F6000.00000
M204 S500
G1 F1800
G1 X49.767 Y-36.975 E3.08878
G1 X60.517 Y-11.362 E4.88701
G1 X60.742 Y-10.609 E4.93785
G1 X60.861 Y-9.614 E5.00273
G1 X60.868 Y8.649 E6.18507
G1 X60.703 Y9.894 E6.26632
G1 X60.405 Y10.801 E6.32817
G1 X48.307 Y38.672 E8.29513
G1 X47.603 Y39.783 E8.38023
G1 X46.758 Y40.570 E8.45499
G1 X45.669 Y41.185 E8.53596
G1 X5.117 Y57.268 E11.36014
G1 X3.534 Y57.741 E11.46706
G1 X1.967 Y57.914 E11.56911
G1 X-10.722 Y57.916 E12.39054
G1 X-12.375 Y57.733 E12.49823
G1 X-14.122 Y57.184 E12.61676
G1 X-49.381 Y38.195 E15.20934
G1 X-50.355 Y37.450 E15.28873
G1 X-51.094 Y36.445 E15.36949
G1 X-51.619 Y35.139 E15.46061
G1 X-51.798 Y34.022 E15.53383
G1 X-52.699 Y-3.893 E17.98905
G1 X-52.628 Y-13.378 E18.60307
G1 X-52.435 Y-14.387 E18.66957
G1 X-44.245 Y-39.869 E20.40231
G1 X-43.968 Y-40.523 E20.44831
G1 X-43.477 Y-41.366 E20.51147
G1 X-42.931 Y-42.051 E20.56816
G1 X-42.356 Y-42.556 E20.61771
G1 X-41.635 Y-42.991 E20.67225
G1 X-14.020 Y-55.038 E22.62266
G1 X-13.350 Y-55.226 E22.66768
G1 X-12.614 Y-55.306 E22.71562
G1 X-4.494 Y-55.308 E23.24133
G1 X-3.208 Y-55.119 E23.32541
G1 X46.534 Y-39.801 E26.69484
G1 X47.314 Y-39.503 E26.74888
G1 X48.022 Y-39.083 E26.80221
G1 X48.991 Y-38.192 E26.88741
M204 S1500
G1 X48.694 Y-37.868 F30000.000
M204 S500
G1 F1800
G1 X49.360 Y-36.793 E26.96929
G1 X60.104 Y-11.197 E28.76638
G1 X60.306 Y-10.518 E28.81225
G1 X60.417 Y-9.591 E28.87264
G1 X60.423 Y8.643 E30.05306
G1 X60.274 Y9.778 E30.12717
G1 X59.996 Y10.627 E30.18501
G1 X47.901 Y38.490 E32.15142
G1 X47.267 Y39.491 E32.22809
G1 X46.499 Y40.208 E32.29613
G1 X45.505 Y40.771 E32.37011
G1 X4.960 Y56.852 E35.19379
G1 X3.444 Y57.305 E35.29622
G1 X1.942 Y57.469 E35.39399
G1 X-10.697 Y57.472 E36.21223
G1 X-12.278 Y57.298 E36.31517
G1 X-13.927 Y56.784 E36.42699
G1 X-49.135 Y37.825 E39.01572
G1 X-50.033 Y37.143 E39.08873
G1 X-50.708 Y36.223 E39.16259
G1 X-51.192 Y35.014 E39.24691
G1 X-51.354 Y33.994 E39.31377
G1 X-52.254 Y-3.902 E41.76777
G1 X-52.185 Y-13.329 E42.37805
G1 X-52.011 Y-14.252 E42.43882
G1 X-43.823 Y-39.728 E44.17116
G1 X-43.577 Y-40.311 E44.21215
G1 X-43.115 Y-41.107 E44.27174
G1 X-42.616 Y-41.737 E44.32372
G1 X-42.095 Y-42.196 E44.36868
G1 X-41.432 Y-42.595 E44.41880
G1 X-13.858 Y-54.624 E46.36634
G1 X-13.257 Y-54.791 E46.40672
G1 X-12.593 Y-54.862 E46.44993
G1 X-4.494 Y-54.863 E46.97425
G1 X-3.336 Y-54.693 E47.04999
G1 X46.403 Y-39.376 E50.41918
G1 X47.121 Y-39.102 E50.46897
G1 X47.765 Y-38.720 E50.51739
G1 X48.638 Y-37.919 E50.59416
M204 S1500
G1 X48.341 Y-37.594 F30000.000
M204 S500
G1 F1800
G1 X48.955 Y-36.610 E50.66922
G1 X59.691 Y-11.031 E52.46510
G1 X59.871 Y-10.424 E52.50609
G1 X59.973 Y-9.563 E52.56223
G1 X59.978 Y8.636 E53.74040
G1 X59.845 Y9.659 E53.80718
G1 X59.586 Y10.454 E53.86125
G1 X47.493 Y38.313 E55.82736
G1 X46.933 Y39.197 E55.89512
G1 X46.256 Y39.835 E55.95533
G1 X45.372 Y40.345 E56.02141
G1 X4.835 Y56.423 E58.84453
G1 X3.361 Y56.868 E58.94422
G1 X1.917 Y57.025 E59.03826
G1 X-10.669 Y57.028 E59.85305
G1 X-12.178 Y56.865 E59.95130
G1 X-13.739 Y56.381 E60.05707
G1 X-48.890 Y37.453 E62.64163
G1 X-49.711 Y36.837 E62.70804
G1 X-50.323 Y36.001 E62.77508
G1 X-50.765 Y34.889 E62.85260
G1 X-50.910 Y33.970 E62.91279
G1 X-51.810 Y-3.907 E65.36555
G1 X-51.743 Y-13.282 E65.97247
G1 X-51.586 Y-14.119 E66.02758
G1 X-43.187 Y-40.098 E67.79510
G1 X-42.754 Y-40.847 E67.85109
G1 X-42.303 Y-41.421 E67.89839
G1 X-41.835 Y-41.835 E67.93881
G1 X-41.233 Y-42.197 E67.98428
G1 X-13.700 Y-54.208 E69.92893
G1 X-12.572 Y-54.417 E70.00321
G1 X-4.494 Y-54.418 E70.52614
G1 X-3.466 Y-54.268 E70.59339
G1 X46.267 Y-38.952 E73.96221
G1 X46.922 Y-38.704 E74.00753
G1 X47.508 Y-38.357 E74.05160
G1 X48.285 Y-37.644 E74.11989
M204 S1500
G1 E71.11989 F6000.00000
G92 E0
G1 Z1.350 F30000.000
G1 X-2.853 Y10.029
G1 Z0.350
G1 E3.00000 F6000.00000
M204 S500
G1 F450
G1 X-2.292 Y10.526 E3.04854
G1 X-1.866 Y11.143 E3.09709
G1 X-1.600 Y11.844 E3.14563
G1 X-1.510 Y12.589 E3.19417
G1 X-1.600 Y13.333 E3.24271
G1 X-1.866 Y14.034 E3.29126
G1 X-2.292 Y14.651 E3.33980
G1 X-2.853 Y15.148 E3.38834
G1 X-3.517 Y15.497 E3.43688
G1 X-4.245 Y15.676 E3.48543
G1 X-4.995 Y15.676 E3.53397
G1 X-5.723 Y15.497 E3.58251
G1 X-6.387 Y15.148 E3.63105
G1 X-6.948 Y14.651 E3.67960
G1 X-7.374 Y14.034 E3.72814
G1 X-7.640 Y13.333 E3.77668
G1 X-7.730 Y12.589 E3.82522
G1 X-7.640 Y11.844 E3.87377
G1 X-7.374 Y11.143 E3.92231
G1 X-6.948 Y10.526 E3.97085
G1 X-6.387 Y10.029 E4.01939
G1 X-5.723 Y9.680 E4.06794
G1 X-4.995 Y9.501 E4.11648
G1 X-4.245 Y9.501 E4.16502
G1 X-3.517 Y9.680 E4.21356
G1 X-2.920 Y9.994 E4.25725
M204 S1500
G1 X-3.108 Y10.398 F30000.000
M204 S500
G1 F450
G1 X-2.627 Y10.823 E4.29880
G1 X-2.263 Y11.351 E4.34035
G1 X-2.035 Y11.951 E4.38190
G1 X-1.958 Y12.589 E4.42345
G1 X-2.035 Y13.226 E4.46499
G1 X-2.263 Y13.826 E4.50654
G1 X-2.627 Y14.354 E4.54809
G1 X-3.108 Y14.780 E4.58964
G1 X-3.676 Y15.078 E4.63119
G1 X-4.299 Y15.231 E4.67274
G1 X-4.941 Y15.231 E4.71429
G1 X-5.564 Y15.078 E4.75583
G1 X-6.132 Y14.780 E4.79738
G1 X-6.613 Y14.354 E4.83893
G1 X-6.977 Y13.826 E4.88048
G1 X-7.205 Y13.226 E4.92203
G1 X-7.282 Y12.589 E4.96358
G1 X-7.205 Y11.951 E5.00513
G1 X-6.977 Y11.351 E5.04667
G1 X-6.613 Y10.823 E5.08822
G1 X-6.132 Y10.398 E5.12977
G1 X-5.564 Y10.099 E5.17132
G1 X-4.941 Y9.946 E5.21287
G1 X-4.299 Y9.946 E5.25442
G1 X-3.676 Y10.099 E5.29596
G1 X-3.174 Y10.363 E5.33266
M204 S1500
G1 X-3.362 Y10.766 F30000.000
M204 S500
G1 F450
G1 X-2.963 Y11.120 E5.36721
G1 X-2.660 Y11.560 E5.40177
G1 X-2.470 Y12.059 E5.43632
G1 X-2.406 Y12.589 E5.47087
G1 X-2.470 Y13.118 E5.50543
G1 X-2.660 Y13.618 E5.53998
G1 X-2.963 Y14.057 E5.57454
G1 X-3.362 Y14.411 E5.60909
G1 X-3.835 Y14.659 E5.64365
G1 X-4.353 Y14.787 E5.67820
G1 X-4.887 Y14.787 E5.71276
G1 X-5.405 Y14.659 E5.74731
G1 X-5.878 Y14.411 E5.78186
G1 X-6.277 Y14.057 E5.81642
G1 X-6.581 Y13.618 E5.85097
G1 X-6.770 Y13.118 E5.88553
G1 X-6.834 Y12.589 E5.92008
G1 X-6.770 Y12.059 E5.95464
G1 X-6.581 Y11.560 E5.98919
G1 X-6.277 Y11.120 E6.02374
G1 X-5.878 Y10.766 E6.05830
G1 X-5.405 Y10.518 E6.09285
G1 X-4.887 Y10.391 E6.12741
G1 X-4.353 Y10.391 E6.16196
G1 X-3.835 Y10.518 E6.19652
G1 X-3.429 Y10.732 E6.22622
M204 S1500
G1 X-2.911 Y10.552 F30000.000
G1 E3.22622 F6000.00000
G92 E0
G1 Z1.350 F30000.000
G1 X-2.040 Y9.139
G1 X0.698 Y8.629
G1 X0.857 Y7.705
G1 X3.003 Y5.757
G1 X4.228 Y4.010
G1 X4.958 Y1.863
G1 X5.463 Y-2.089
G1 X5.296 Y-3.677
G1 X4.199 Y-3.851
G1 Z0.350
G1 E3.00000 F6000.00000
M204 S500
G1 F450
G1 X4.645 Y-3.328 E3.04457
G1 X4.965 Y-2.689 E3.09078
G1 X5.123 Y-1.993 E3.13698
G1 X5.111 Y-1.368 E3.17746
G1 X4.669 Y1.776 E3.38303
G1 X4.508 Y2.381 E3.42351
G1 X4.165 Y3.006 E3.46971
G1 X3.681 Y3.531 E3.51591
G1 X3.087 Y3.926 E3.56211
G1 X2.415 Y4.166 E3.60832
G1 X1.705 Y4.239 E3.65452
G1 X0.998 Y4.139 E3.70072
G1 X0.335 Y3.874 E3.74692
G1 X-0.244 Y3.458 E3.79312
G1 X-0.707 Y2.915 E3.83932
G1 X-1.027 Y2.276 E3.88553
G1 X-1.185 Y1.580 E3.93173
G1 X-1.173 Y0.955 E3.97221
G1 X-0.731 Y-2.189 E4.17778
G1 X-0.570 Y-2.794 E4.21826
G1 X-0.227 Y-3.419 E4.26446
G1 X0.257 Y-3.944 E4.31066
G1 X0.833 Y-4.326 E4.35540
G1 X0.545 Y-4.581 E4.38025
G1 X0.120 Y-5.198 E4.42879
G1 X-0.146 Y-5.899 E4.47733
G1 X-0.237 Y-6.643 E4.52588
G1 X-0.146 Y-7.388 E4.57442
G1 X0.120 Y-8.089 E4.62296
G1 X0.545 Y-8.706 E4.67150
G1 X1.107 Y-9.203 E4.72005
G1 X1.771 Y-9.552 E4.76859
G1 X2.499 Y-9.731 E4.81713
G1 X3.249 Y-9.731 E4.86567
G1 X3.977 Y-9.552 E4.91422
G1 X4.641 Y-9.203 E4.96276
G1 X5.202 Y-8.706 E5.01130
G1 X5.628 Y-8.089 E5.05984
G1 X5.894 Y-7.388 E5.10839
G1 X5.984 Y-6.643 E5.15693
G1 X5.894 Y-5.899 E5.20547
G1 X5.628 Y-5.198 E5.25402
G1 X5.202 Y-4.581 E5.30256
G1 X4.641 Y-4.083 E5.35110
G1 X4.265 Y-3.886 E5.37856
M204 S1500
G1 X3.228 Y-4.009 F30000.000
M204 S500
G1 F450
G1 X3.879 Y-3.541 E5.43047
G1 X4.272 Y-3.080 E5.46968
G1 X4.543 Y-2.538 E5.50889
G1 X4.677 Y-1.948 E5.54810
G1 X4.667 Y-1.403 E5.58334
G1 X4.232 Y1.688 E5.78542
G1 X4.092 Y2.214 E5.82066
G1 X3.801 Y2.745 E5.85987
G1 X3.391 Y3.190 E5.89908
G1 X2.886 Y3.525 E5.93829
G1 X2.316 Y3.729 E5.97749
G1 X1.713 Y3.791 E6.01670
G1 X1.113 Y3.706 E6.05591
G1 X0.551 Y3.481 E6.09512
G1 X0.059 Y3.128 E6.13432
G1 X-0.334 Y2.667 E6.17353
G1 X-0.605 Y2.125 E6.21274
G1 X-0.739 Y1.535 E6.25195
G1 X-0.729 Y0.990 E6.28719
G1 X-0.294 Y-2.101 E6.48927
G1 X-0.154 Y-2.627 E6.52452
G1 X0.137 Y-3.158 E6.56372
G1 X0.547 Y-3.603 E6.60293
G1 X1.052 Y-3.938 E6.64214
G1 X1.819 Y-4.212 E6.69483
G1 X1.361 Y-4.452 E6.72826
G1 X0.881 Y-4.878 E6.76981
G1 X0.516 Y-5.406 E6.81136
G1 X0.289 Y-6.006 E6.85291
G1 X0.211 Y-6.643 E6.89446
G1 X0.289 Y-7.280 E6.93601
G1 X0.516 Y-7.880 E6.97756
G1 X0.881 Y-8.409 E7.01910
G1 X1.361 Y-8.834 E7.06065
G1 X1.930 Y-9.133 E7.10220
G1 X2.553 Y-9.286 E7.14375
G1 X3.195 Y-9.286 E7.18530
G1 X3.818 Y-9.133 E7.22685
G1 X4.386 Y-8.834 E7.26839
G1 X4.866 Y-8.409 E7.30994
G1 X5.231 Y-7.880 E7.35149
G1 X5.459 Y-7.280 E7.39304
G1 X5.536 Y-6.643 E7.43459
G1 X5.459 Y-6.006 E7.47614
G1 X5.231 Y-5.406 E7.51769
G1 X4.866 Y-4.878 E7.55923
G1 X4.386 Y-4.452 E7.60078
G1 X3.818 Y-4.154 E7.64233
G1 X3.300 Y-4.026 E7.67682
M204 S1500
G1 X3.171 Y-3.501 F30000.000
M204 S500
G1 F450
G1 X3.575 Y-3.211 E7.70904
G1 X3.898 Y-2.832 E7.74125
G1 X4.121 Y-2.387 E7.77346
G1 X4.231 Y-1.902 E7.80568
G1 X4.222 Y-1.439 E7.83568
G1 X3.796 Y1.599 E8.03428
G1 X3.676 Y2.047 E8.06428
G1 X3.437 Y2.483 E8.09650
G1 X3.100 Y2.849 E8.12871
G1 X2.685 Y3.124 E8.16092
G1 X2.217 Y3.292 E8.19314
G1 X1.721 Y3.343 E8.22535
G1 X1.229 Y3.273 E8.25756
G1 X0.767 Y3.088 E8.28978
G1 X0.363 Y2.798 E8.32199
G1 X0.040 Y2.419 E8.35420
G1 X-0.183 Y1.974 E8.38642
G1 X-0.293 Y1.489 E8.41863
G1 X-0.284 Y1.026 E8.44863
G1 X0.143 Y-2.012 E8.64723
G1 X0.262 Y-2.460 E8.67724
G1 X0.501 Y-2.896 E8.70945
G1 X0.838 Y-3.262 E8.74166
G1 X1.253 Y-3.537 E8.77388
G1 X1.722 Y-3.705 E8.80609
G1 X2.217 Y-3.756 E8.83830
G1 X2.709 Y-3.686 E8.87052
G1 X3.102 Y-3.529 E8.89787
M204 S1500
G1 X3.597 Y-3.759 F30000.000
G1 X3.141 Y-4.445
M204 S500
G1 F450
G1 X2.607 Y-4.445 E8.93243
G1 X2.089 Y-4.573 E8.96698
G1 X1.616 Y-4.821 E9.00154
G1 X1.216 Y-5.175 E9.03609
G1 X0.913 Y-5.614 E9.07065
G1 X0.724 Y-6.113 E9.10520
G1 X0.660 Y-6.643 E9.13975
G1 X0.724 Y-7.173 E9.17431
G1 X0.913 Y-7.672 E9.20886
G1 X1.216 Y-8.111 E9.24342
G1 X1.616 Y-8.465 E9.27797
G1 X2.089 Y-8.713 E9.31253
G1 X2.607 Y-8.841 E9.34708
G1 X3.141 Y-8.841 E9.38164
G1 X3.659 Y-8.713 E9.41619
G1 X4.131 Y-8.465 E9.45074
G1 X4.531 Y-8.111 E9.48530
G1 X4.834 Y-7.672 E9.51985
G1 X5.023 Y-7.173 E9.55441
G1 X5.088 Y-6.643 E9.58896
G1 X5.023 Y-6.113 E9.62352
G1 X4.834 Y-5.614 E9.65807
G1 X4.531 Y-5.175 E9.69262
G1 X4.131 Y-4.821 E9.72718
G1 X3.659 Y-4.573 E9.76173
G1 X3.213 Y-4.463 E9.79143
M204 S1500
G1 X2.945 Y-3.985 F30000.000
G1 E6.79143 F6000.00000
G92 E0
G1 Z1.350 F30000.000
G1 X3.924 Y-3.874
G1 X5.296 Y-3.677
G1 X5.418 Y-2.937
G1 X5.413 Y-1.372
G1 X4.968 Y1.809
G1 X4.228 Y4.010
G1 X3.003 Y5.757
G1 X0.857 Y7.705
G1 X0.698 Y8.629
G1 X-1.621 Y9.081
G1 X-3.807 Y9.300
G1 X-6.197 Y8.954
G1 X-9.336 Y7.916
G1 X-9.364 Y6.990
G1 X-7.846 Y5.246
G1 X-7.101 Y4.085
G1 X-6.540 Y2.862
G1 X-6.167 Y1.352
G1 X-6.114 Y-2.578
G1 X-6.291 Y-4.027
G1 X-6.549 Y-4.887
G1 X-7.642 Y-4.900
G1 Z0.350
G1 E3.00000 F6000.00000
M204 S500
G1 F450
G1 X-7.148 Y-4.462 E3.04270
G1 X-6.743 Y-3.875 E3.08890
G1 X-6.490 Y-3.207 E3.13510
G1 X-6.415 Y-2.587 E3.17559
G1 X-6.415 Y0.589 E3.38115
G1 X-6.490 Y1.209 E3.42164
G1 X-6.743 Y1.877 E3.46784
G1 X-7.148 Y2.464 E3.51404
G1 X-7.683 Y2.937 E3.56024
G1 X-8.131 Y3.173 E3.59300
G1 X-8.315 Y3.269 E3.60644
G1 X-9.007 Y3.440 E3.65264
G1 X-9.721 Y3.440 E3.69885
G1 X-10.414 Y3.269 E3.74505
G1 X-11.046 Y2.937 E3.79125
G1 X-11.580 Y2.464 E3.83745
G1 X-11.986 Y1.877 E3.88365
G1 X-12.239 Y1.209 E3.92985
G1 X-12.314 Y0.589 E3.97034
G1 X-12.314 Y-2.587 E4.17590
G1 X-12.239 Y-3.207 E4.21639
G1 X-11.986 Y-3.875 E4.26259
G1 X-11.580 Y-4.462 E4.30879
G1 X-11.086 Y-4.900 E4.35149
G1 X-11.692 Y-5.436 E4.40390
G1 X-12.118 Y-6.054 E4.45245
G1 X-12.384 Y-6.755 E4.50099
G1 X-12.475 Y-7.499 E4.54953
G1 X-12.384 Y-8.243 E4.59807
G1 X-12.118 Y-8.944 E4.64662
G1 X-11.692 Y-9.562 E4.69516
G1 X-11.131 Y-10.059 E4.74370
G1 X-10.467 Y-10.407 E4.79224
G1 X-9.739 Y-10.587 E4.84079
G1 X-8.989 Y-10.587 E4.88933
G1 X-8.261 Y-10.407 E4.93787
G1 X-7.597 Y-10.059 E4.98642
G1 X-7.036 Y-9.562 E5.03496
G1 X-6.610 Y-8.944 E5.08350
G1 X-6.344 Y-8.243 E5.13204
G1 X-6.254 Y-7.499 E5.18059
G1 X-6.344 Y-6.755 E5.22913
G1 X-6.610 Y-6.054 E5.27767
G1 X-7.036 Y-5.436 E5.32621
G1 X-7.586 Y-4.949 E5.37377
M204 S1500
G1 X-8.601 Y-4.915 F30000.000
M204 S500
G1 F450
G1 X-7.937 Y-4.567 E5.42230
G1 X-7.484 Y-4.165 E5.46151
G1 X-7.140 Y-3.667 E5.50071
G1 X-6.925 Y-3.100 E5.53992
G1 X-6.859 Y-2.560 E5.57516
G1 X-6.859 Y0.562 E5.77725
G1 X-6.925 Y1.102 E5.81249
G1 X-7.140 Y1.669 E5.85170
G1 X-7.484 Y2.167 E5.89090
G1 X-7.937 Y2.569 E5.93011
G1 X-8.473 Y2.850 E5.96932
G1 X-9.061 Y2.995 E6.00853
G1 X-9.667 Y2.995 E6.04773
G1 X-10.255 Y2.850 E6.08694
G1 X-10.791 Y2.569 E6.12615
G1 X-11.245 Y2.167 E6.16536
G1 X-11.589 Y1.669 E6.20456
G1 X-11.804 Y1.102 E6.24377
G1 X-11.869 Y0.562 E6.27902
G1 X-11.869 Y-2.560 E6.48110
G1 X-11.804 Y-3.100 E6.51634
G1 X-11.589 Y-3.667 E6.55555
G1 X-11.245 Y-4.165 E6.59476
G1 X-10.791 Y-4.567 E6.63396
G1 X-10.128 Y-4.915 E6.68249
G1 X-10.877 Y-5.308 E6.73725
G1 X-11.357 Y-5.734 E6.77880
G1 X-11.722 Y-6.262 E6.82035
G1 X-11.949 Y-6.862 E6.86189
G1 X-12.027 Y-7.499 E6.90344
G1 X-11.949 Y-8.136 E6.94499
G1 X-11.722 Y-8.736 E6.98654
G1 X-11.357 Y-9.264 E7.02809
G1 X-10.877 Y-9.690 E7.06964
G1 X-10.308 Y-9.988 E7.11118
G1 X-9.685 Y-10.142 E7.15273
G1 X-9.043 Y-10.142 E7.19428
G1 X-8.420 Y-9.988 E7.23583
G1 X-7.852 Y-9.690 E7.27738
G1 X-7.372 Y-9.264 E7.31893
G1 X-7.007 Y-8.736 E7.36048
G1 X-6.779 Y-8.136 E7.40202
G1 X-6.702 Y-7.499 E7.44357
G1 X-6.779 Y-6.862 E7.48512
G1 X-7.007 Y-6.262 E7.52667
G1 X-7.372 Y-5.734 E7.56822
G1 X-7.852 Y-5.308 E7.60977
G1 X-8.535 Y-4.950 E7.65967
M204 S1500
G1 X-8.632 Y-4.429 F30000.000
M204 S500
G1 F450
G1 X-8.192 Y-4.198 E7.69188
G1 X-7.819 Y-3.868 E7.72409
G1 X-7.537 Y-3.458 E7.75631
G1 X-7.360 Y-2.993 E7.78852
G1 X-7.304 Y-2.533 E7.81853
G1 X-7.304 Y0.535 E8.01712
G1 X-7.360 Y0.995 E8.04713
G1 X-7.537 Y1.460 E8.07934
G1 X-7.819 Y1.870 E8.11155
G1 X-8.192 Y2.200 E8.14377
G1 X-8.632 Y2.431 E8.17598
G1 X-9.115 Y2.550 E8.20820
G1 X-9.613 Y2.550 E8.24041
G1 X-10.096 Y2.431 E8.27262
G1 X-10.537 Y2.200 E8.30484
G1 X-10.909 Y1.870 E8.33705
G1 X-11.192 Y1.460 E8.36926
G1 X-11.368 Y0.995 E8.40148
G1 X-11.424 Y0.535 E8.43148
G1 X-11.424 Y-2.533 E8.63008
G1 X-11.368 Y-2.993 E8.66008
G1 X-11.192 Y-3.458 E8.69230
G1 X-10.909 Y-3.868 E8.72451
G1 X-10.537 Y-4.198 E8.75672
G1 X-10.096 Y-4.429 E8.78894
G1 X-9.613 Y-4.548 E8.82115
G1 X-9.115 Y-4.548 E8.85336
G1 X-8.705 Y-4.447 E8.88072
M204 S1500
G1 X-8.247 Y-4.744 F30000.000
G1 X-9.097 Y-5.301
M204 S500
G1 F450
G1 X-9.631 Y-5.301 E8.91527
G1 X-10.149 Y-5.429 E8.94983
G1 X-10.622 Y-5.677 E8.98438
G1 X-11.022 Y-6.031 E9.01894
G1 X-11.325 Y-6.470 E9.05349
G1 X-11.514 Y-6.969 E9.08805
G1 X-11.578 Y-7.499 E9.12260
